assets/images/icon-cozy-home.svg

<?xml version="1.0" encoding="UTF-8"?>
<!--
    DO NOT RENAME THIS FILE
    This asset is used by cozy-bar with the exact path from stack assets
 -->
<svg width="32px" height="32px" viewBox="0 0 32 32" version="1.1" xmlns="http://www.w3.org/2000/svg" xmlns:xlink="http://www.w3.org/1999/xlink">
    <defs></defs>
    <g id="📦-components" stroke="none" stroke-width="1" fill="none" fill-rule="evenodd">
        <g id="components/header/2_1" transform="translate(-16.000000, -12.000000)">
            <g id="icon-cozy-home" transform="translate(16.000000, 12.000000)">
                <g id="logo">
                    <g id="logo/cozypastille">
                        <circle id="Oval" fill="#297EF2" fill-rule="nonzero" cx="16" cy="16" r="16"></circle>
                        <path d="M19.31364,17.56136 C19.15384,17.81024 18.79956,17.88504 18.55544,17.72184 C18.53436,17.70892 18.51396,17.69464 18.49492,17.68036 C17.78296,18.23864 16.90644,18.54328 15.99524,18.54328 C15.08608,18.54328 14.2116,18.24 13.501,17.68376 C13.48264,17.69668 13.46428,17.71028 13.44524,17.72184 C13.19364,17.88572 12.8448,17.80752 12.68636,17.5634 C12.52588,17.31588 12.59592,16.98064 12.84208,16.8154 C13.0556,16.67464 13.07056,16.3938 13.07056,16.39108 C13.076,16.2442 13.13992,16.10412 13.24668,16.00552 C13.35276,15.90692 13.48604,15.8498 13.63292,15.86136 C13.92736,15.86816 14.16672,16.11568 14.16128,16.41352 C14.16128,16.4176 14.1606,16.56652 14.10688,16.77324 C15.20508,17.68512 16.79696,17.68172 17.89108,16.76576 C17.85096,16.60732 17.84076,16.48084 17.83804,16.42236 C17.83532,16.26936 17.88972,16.13064 17.9924,16.02524 C18.09304,15.92188 18.22904,15.8634 18.37388,15.86068 L18.3834,15.86068 C18.67784,15.86068 18.92196,16.098 18.92876,16.39312 C18.92876,16.39312 18.9444,16.67532 19.15588,16.81472 C19.4034,16.97792 19.47412,17.3118 19.31364,17.56136 M21.63584,11.19248 C21.47876,9.86376 20.89056,8.63568 19.94604,7.6864 C18.8628,6.59772 17.4314,6 15.91636,6 C14.40132,6 12.9706,6.59772 11.88736,7.68708 C10.93876,8.63976 10.3492,9.87464 10.19552,11.21084 C8.89468,11.3686 7.69176,11.97448 6.76288,12.94756 C5.70344,14.05936 5.12,15.52884 5.12,17.08468 C5.12,20.34664 7.704,23 10.88164,23 L21.11768,23 C24.29396,23 26.88,20.34664 26.88,17.08468 C26.88,14.00224 24.57072,11.46244 21.63584,11.19248" id="Fill-1" fill="#FFFFFF" fill-rule="evenodd"></path>
                    </g>
                </g>
            </g>
        </g>
    </g>
</svg>

<svg width="32" height="32" xmlns="http://www.w3.org/2000/svg"><g fill="none" fill-rule="evenodd"><circle fill="#297EF2" fill-rule="nonzero" cx="16" cy="16" r="16"/><path d="M19.314 17.561a.555.555 0 0 1-.82.12 4.044 4.044 0 0 1-2.499.862 4.04 4.04 0 0 1-2.494-.86.557.557 0 0 1-.815-.12.547.547 0 0 1 .156-.748c.214-.14.229-.421.229-.424a.555.555 0 0 1 .176-.385.504.504 0 0 1 .386-.145.544.544 0 0 1 .528.553c0 .004 0 .153-.054.36a2.954 2.954 0 0 0 3.784-.008 1.765 1.765 0 0 1-.053-.344.546.546 0 0 1 .536-.561h.01c.294 0 .538.237.545.532 0 0 .015.282.227.422a.544.544 0 0 1 .158.746m2.322-6.369a5.94 5.94 0 0 0-1.69-3.506A5.651 5.651 0 0 0 15.916 6a5.648 5.648 0 0 0-4.029 1.687 5.936 5.936 0 0 0-1.691 3.524 5.677 5.677 0 0 0-3.433 1.737 5.966 5.966 0 0 0-1.643 4.137C5.12 20.347 7.704 23 10.882 23h10.236c3.176 0 5.762-2.653 5.762-5.915 0-3.083-2.31-5.623-5.244-5.893" fill="#FFF"/></g></svg>
